!!!COM: Palestrina, Giovanni Perluigi da
!!!OPR: Quem dicunt homines
!!!OTL: Sanctus
**kern	**kern	**kern	**kern
*Ibass	*Itenor	*Icalto	*Icant
!Bassus	!Tenor	!Altus	!Cantus
*clefF4	*clefGv2	*clefG2	*clefG2
*k[]	*k[]	*k[]	*k[]
*C:ion	*C:ion	*C:ion	*C:ion
*M4/2	*M4/2	*M4/2	*M4/2
=1	=1	=1	=1
0r	0r	1.c	0r
.	.	2c	.
=2	=2	=2	=2
0r	0r	2d	1r
.	.	2e	.
.	.	2c	[1g
.	.	2G	.
=3	=3	=3	=3
0r	0r	2.c	2g]
.	.	.	2g
.	.	4B	.
.	.	2A	2a
.	.	2G	2b
=4	=4	=4	=4
1.C	0r	2.c	2g
.	.	.	2g
.	.	4d	.
.	.	4e	2.cc
.	.	4f	.
2C	.	2g	.
.	.	.	4b
=5	=5	=5	=5
2D	1r	2f	2a
2E	.	2.e	2.g
1C	[1G	.	.
.	.	4d	4f
.	.	[2c	2e
=6	=6	=6	=6
0r	2G]	2c]	2.d
.	2G	2B	.
.	.	.	4e
.	2A	2c	2f
.	2B	2d	[2g
=7	=7	=7	=7
1.C	2G	1e	4g]
.	.	.	4f
.	2G	.	4e
.	.	.	4d
.	2.c	2r	1e
2C	.	2g	.
.	4B	.	.
=8	=8	=8	=8
2D	2A	2f	2r
2E	2G	2.e	1g
1C	2.c	.	.
.	.	4d	.
.	.	2e	2g
.	4B	.	.
=9	=9	=9	=9
2r	2A	2f	2a
2G	2d	1g	2b
2.c	1e	.	2g
.	.	2e	2g
4B	.	.	.
=10	=10	=10	=10
2A	2c	2f#	2cc
2G	2d	2g	2b
2.c	2.e	4e	2a
.	.	4f#	.
.	.	[2g	2g
4B	4d	.	.
=11	=11	=11	=11
1A	1c	2g]	1cc
.	.	2f#	.
1G	2d	1g	4b
.	.	.	4a
.	2G	.	4g
.	.	.	4f
=12	=12	=12	=12
0r	2c	2r	2e
.	2B	2G	2d
.	2A	2c	[1e
.	2G	2B	.
=13	=13	=13	=13
1C	1.c	2A	1e]
.	.	2G	.
2.F	.	2A	1c
.	2A	2c	.
4E	.	.	.
=14	=14	=14	=14
2D	2B	2d	2f
2C	1c	2G	1e
1F	.	1A	.
.	4B	.	2d
.	4A	.	.
=15	=15	=15	=15
0E	2G	1B	0e
.	1B	.	.
.	.	2r	.
.	2G	[2e	.
=16	=16	=16	=16
0r	1A	2e]	2r
.	.	2c	1e
.	1c	1e	.
.	.	.	2c
=17	=17	=17	=17
0r	2C	1g	1e
.	1c	.	.
.	.	2c	1g
.	2B	[2g	.
=18	=18	=18	=18
0r	1A	2g]	2c
.	.	2f	1cc
.	1G	2e	.
.	.	2d	2cc
=19	=19	=19	=19
2r	0r	2c	2a
1E	.	4B	4g
.	.	4A	4f
.	.	2B	2.g
2C	.	[2e	.
.	.	.	4f
=20	=20	=20	=20
1E	1r	4e]	1e
.	.	4d	.
.	.	1c	.
1G	2r	.	1d
.	2d	2B	.
=21	=21	=21	=21
2C	2e	2.c	0g
1c	2e	.	.
.	.	4d	.
.	2c	4e	.
.	.	4f	.
2B	2d	2g	.
=22	=22	=22	=22
[0A	2e	2.c	2r
.	4A	.	1e
.	4B	4d	.
.	4c	2e	.
.	4d	.	.
.	[2e	2A	2c
=23	=23	=23	=23
1A]	4e]	1c	1e
.	4d	.	.
.	1c	.	.
1G	.	1d	1g
.	2B	.	.
=24	=24	=24	=24
1C	0c	2r	2e
.	.	1e	2.g
2r	.	.	.
.	.	.	4f
[2A	.	2c	4e
.	.	.	4d
=25	=25	=25	=25
2A]	0r	2e	2c
2F	.	2f	2.cc
1A	.	2e	.
.	.	.	4b
.	.	[2f	2a
=26	=26	=26	=26
1c	1r	2f]	1g
.	.	2e	.
1F	2r	1f	2.a
.	[2A	.	.
.	.	.	8g
.	.	.	8f
=27	=27	=27	=27
2.A	2A]	1r	2e
.	2F	.	2f
4B	.	.	.
2c	1A	2r	1e
2c	.	[2e	.
=28	=28	=28	=28
0C	1c	2e]	2r
.	.	2c	1e
.	2G	1e	.
.	[2c	.	2c
=29	=29	=29	=29
2r	2c]	1g	1e
1E	4B	.	.
.	4A	.	.
.	2B	2e	1g
2C	[2e	[2g	.
=30	=30	=30	=30
1E	4e]	4g]	2e
.	4d	4f	.
.	1c	2e	1g
1G	.	2d	.
.	2B	[2g	2d
=31	=31	=31	=31
2C	1e	4g]	2.g
.	.	4f	.
1c	.	4e	.
.	.	4c	4f
.	2c	[1g	4e
.	.	.	4d
2B	2d	.	[2dd
=32	=32	=32	=32
1A	2e	2g]	4dd]
.	.	.	4cc
.	4d	2f#	1cc
.	4c	.	.
1G	1d	1g	.
.	.	.	2b
=33	=33	=33	=33
0C	0c	0e	0cc
=34	=34	=34	=34
1G	0r	0r	0r
2A	.	.	.
2G	.	.	.
=35	=35	=35	=35
1c	0r	0r	1g
2A	.	.	2a
[2c	.	.	2g
=36	=36	=36	=36
4c]	0r	1c	1cc
4B	.	.	.
2A	.	.	.
2G	.	2d	2b
2A	.	2c	[2cc
=37	=37	=37	=37
1F	0r	1f	4cc]
.	.	.	4b
.	.	.	2a
[1C	.	2e	1g
.	.	[2g	.
=38	=38	=38	=38
1C]	1G	4g]	2e
.	.	4f	.
.	.	4e	2g
.	.	4d	.
1r	2A	2c	4f
.	.	.	4e
.	2G	2d	[2g
=39	=39	=39	=39
0r	1c	4e	4g]
.	.	4f	4f
.	.	4g	1e
.	.	4e	.
.	2A	1f	.
.	2B	.	2d
=40	=40	=40	=40
2r	2.c	1e	1e
2C	.	.	.
.	4B	.	.
2D	4A	2r	1r
.	4G	.	.
[2F	[2A	2c	.
=41	=41	=41	=41
2F]	4A]	2d	0r
.	4B	.	.
2E	1c	2c	.
1D	.	1f	.
.	2B	.	.
=42	=42	=42	=42
1C	2c	0e	2r
.	2c	.	2g
1r	2A	.	2a
.	[2c	.	2g
=43	=43	=43	=43
0r	2c]	1c	1cc
.	4B	.	.
.	4A	.	.
.	2G	2d	2b
.	[2A	2c	[2cc
=44	=44	=44	=44
0r	2A]	1f	2cc]
.	2B	.	4b
.	.	.	4a
.	2c	2e	2g
.	2F	[2f	[2a
=45	=45	=45	=45
2r	1C	4f]	4a]
.	.	4e	4g
2G	.	1e	2g
2A	1r	.	1f
2B	.	2d	.
=46	=46	=46	=46
1.c	1r	[0e	2e
.	.	.	2g
.	2r	.	2a
2B	2G	.	2b
=47	=47	=47	=47
2A	2A	0e]	2cc
2G#	2B	.	2b
2.A	[1c	.	1a
4G	.	.	.
=48	=48	=48	=48
4E	2c]	0r	1g
4F	.	.	.
1G	2B	.	.
.	1A	.	1r
2F	.	.	.
=49	=49	=49	=49
2E	2G	2r	1r
2.F	2.A	2c	.
.	.	2d	2r
4G	4B	.	.
2E	[2c	2e	2g
=50	=50	=50	=50
1D	2c]	1.f	2a
.	2B	.	2b
1C	2A	.	2.cc
.	2G	4e	.
.	.	4d	4b
=51	=51	=51	=51
0r	2c	2e	4a
.	.	.	4g
.	2B	2d	1dd
.	1A	4f	.
.	.	4e	.
.	.	4e	[2cc
.	.	8d	.
.	.	8c	.
=52	=52	=52	=52
2r	1G	1d	2cc]
2G	.	.	2b
2A	1r	2c	2cc
2B	.	2d	4b
.	.	.	4a
=53	=53	=53	=53
2c	2r	1e	1g
1C	2G	.	.
.	2A	1r	1r
2D	2B	.	.
=54	=54	=54	=54
2E	2.c	0r	0r
2.F	.	.	.
.	4B	.	.
.	4A	.	.
4E	4G	.	.
4F	[2d	.	.
4D	.	.	.
=55	=55	=55	=55
2E	2d]	2r	0r
2F	1c	2c	.
1D	.	1d	.
.	2B	.	.
=56	=56	=56	=56
2C	1.c	1e	2r
2E	.	.	2g
2F	.	2r	2a
[2G	2B	2d	2b
=57	=57	=57	=57
2G]	1A	2e	1.cc
2F	.	2f	.
2.E	1G	2.g	.
.	.	.	4b
4F	.	4f	4a
=58	=58	=58	=58
2G	2r	4e	2b
.	.	4d	.
2A	2c	1a	2cc
2F	2c	.	2a
2G	2B	[2g	[2dd
=59	=59	=59	=59
1A	2c	2g]	4dd]
.	.	.	4cc
.	2c	2f#	1cc
1G	1d	1g	.
.	.	.	2b
=60	=60	=60	=60
0C	0c	0e	0cc
==	==	==	==
*-	*-	*-	*-
!!!CDT: 1525/^1526/-1594/2/2
!!!OCY: Italia
!!!AGN: Mass (Parody)
!!!AST: renaissance, vocal
!!!ASW: Motet 1532 (Richafort)
!!!PWK: Masses, Book 8
!!!RNB: Cadence finals: G
!!!YOR: Le Opere Complete, v. 24, p. 1
!!!YOO: Rome, Italy: Fratelli Scalera
!!!END: 1992//
!!!EED: John Miller
!!!YEC: Copyright 2000, John Miller
!!!YEN: United States of America
!!!YEM: Rights to all derivative electronic formats reserved.
!!!YEM: Refer to licensing agreement for further details.
!!!YEM: This file must be accompanied by the licensing agreement.
!!!YEM: A copy of the licensing agreement may be found at http://www.music-cog.ohio-state.edu/HumdrumDatabases/Palestrina/license.txt
!!!EMD: converted to Humdrum by Bret Aarden
